img/empower-card-img-02.svg

<svg width="48" height="48" viewBox="0 0 48 48" fill="none" xmlns="http://www.w3.org/2000/svg">
<g clip-path="url(#clip0_1_407)">
<path opacity="0.15" d="M43.15 13.7502H3.85007C3.83207 13.7502 3.82007 13.7621 3.82007 13.7799V19.1851C3.82007 22.7294 6.76007 25.6039 10.3781 25.6039C12.8201 25.6039 14.9501 24.3 16.0841 22.3619C16.2581 22.0597 16.5881 21.87 16.9421 21.87C17.2961 21.87 17.6201 22.0597 17.8001 22.3619C18.9281 24.3 21.0581 25.6039 23.5001 25.6039C25.9481 25.6039 28.084 24.2941 29.206 22.3501C29.38 22.0537 29.698 21.87 30.04 21.87H30.076C30.424 21.87 30.736 22.0537 30.91 22.3501C32.038 24.2941 34.174 25.6039 36.622 25.6039C40.24 25.6039 43.18 22.7294 43.18 19.1851V13.7799C43.18 13.7621 43.168 13.7502 43.15 13.7502Z" fill="#00A0C1"/>
<path d="M45.7 9.48885V1.89659C45.7 0.847537 44.842 0 43.78 0H3.22003C2.15803 0 1.30004 0.847537 1.30004 1.89659V9.48885C0.298037 9.54812 -0.499963 10.372 -0.499963 11.3795V19.1851C-0.503805 20.6197 -0.209747 22.0398 0.364037 23.3576C0.622036 23.9622 0.940036 24.5311 1.30004 25.0705V45.518C1.30004 46.5612 2.15803 47.4146 3.22003 47.4146H43.78C44.842 47.4146 45.7 46.5671 45.7 45.518V25.0705C46.0657 24.5298 46.379 23.9563 46.636 23.3576C47.206 22.036 47.5 20.6313 47.5 19.1851V11.3795C47.5 10.372 46.702 9.54812 45.7 9.48885ZM5.62003 4.26732H41.38V9.48293H5.62003V4.26732ZM27.34 43.1532H19.66V36.9834H27.34V43.1532ZM41.404 43.1532H31.18V35.0868C31.18 34.0378 30.322 33.1902 29.26 33.1902H17.74C16.678 33.1902 15.82 34.0378 15.82 35.0868V43.1532H5.62003V28.7985C5.79403 28.8814 5.97403 28.9644 6.16003 29.0355C7.49803 29.5927 8.92003 29.8712 10.384 29.8712C11.848 29.8712 13.264 29.5927 14.608 29.0355C15.436 28.6918 16.216 28.2532 16.93 27.7257C16.942 27.7198 16.954 27.7198 16.966 27.7257C17.6822 28.2554 18.4622 28.6954 19.288 29.0355C20.626 29.5927 22.048 29.8712 23.512 29.8712C24.976 29.8712 26.392 29.5927 27.736 29.0355C28.564 28.6918 29.344 28.2532 30.058 27.7257C30.07 27.7198 30.082 27.7198 30.094 27.7257C30.8102 28.2554 31.5902 28.6954 32.416 29.0355C33.754 29.5927 35.176 29.8712 36.64 29.8712C38.104 29.8712 39.52 29.5927 40.864 29.0355C41.044 28.9585 41.224 28.8814 41.404 28.7985V43.1532V43.1532ZM43.18 19.1851C43.18 22.7294 40.24 25.6039 36.622 25.6039C34.174 25.6039 32.038 24.2941 30.91 22.3501C30.736 22.0537 30.424 21.87 30.076 21.87H30.04C29.698 21.87 29.38 22.0537 29.206 22.3501C28.6304 23.3417 27.7992 24.1652 26.797 24.7367C25.7948 25.3082 24.6572 25.6074 23.5 25.6039C21.058 25.6039 18.928 24.3 17.8 22.3619C17.62 22.0597 17.296 21.87 16.942 21.87C16.588 21.87 16.258 22.0597 16.084 22.3619C15.505 23.3498 14.6728 24.1695 13.6711 24.7387C12.6694 25.3078 11.5336 25.6062 10.378 25.6039C6.76003 25.6039 3.82003 22.7294 3.82003 19.1851V13.7799C3.82003 13.7621 3.83203 13.7502 3.85003 13.7502H43.15C43.168 13.7502 43.18 13.7621 43.18 13.7799V19.1851Z" fill="#00A0C1"/>
</g>
<defs>
<clipPath id="clip0_1_407">
<rect width="48" height="47.4146" fill="white" transform="translate(-0.5)"/>
</clipPath>
</defs>
</svg>

<svg width="48" height="48" fill="none" xmlns="http://www.w3.org/2000/svg"><g clip-path="url(#a)" fill="#00A0C1"><path opacity=".15" d="M43.15 13.75H3.85c-.018 0-.03.012-.03.03v5.405c0 3.544 2.94 6.419 6.558 6.419a6.593 6.593 0 0 0 5.706-3.242.993.993 0 0 1 1.716 0 6.576 6.576 0 0 0 5.7 3.242c2.448 0 4.584-1.31 5.706-3.254a.97.97 0 0 1 .834-.48h.036c.348 0 .66.184.834.48a6.586 6.586 0 0 0 5.712 3.254c3.618 0 6.558-2.875 6.558-6.419V13.78c0-.018-.012-.03-.03-.03Z"/><path d="M45.7 9.489V1.897C45.7.847 44.842 0 43.78 0H3.22C2.158 0 1.3.848 1.3 1.897v7.592c-1.002.06-1.8.883-1.8 1.89v7.806a10.38 10.38 0 0 0 .864 4.173c.258.604.576 1.173.936 1.712v20.448a1.91 1.91 0 0 0 1.92 1.897h40.56c1.062 0 1.92-.848 1.92-1.897V25.07c.366-.54.679-1.114.936-1.712.57-1.322.864-2.727.864-4.173V11.38a1.905 1.905 0 0 0-1.8-1.891ZM5.62 4.267h35.76v5.216H5.62V4.267Zm21.72 38.886h-7.68v-6.17h7.68v6.17Zm14.064 0H31.18v-8.066a1.906 1.906 0 0 0-1.92-1.897H17.74c-1.062 0-1.92.848-1.92 1.897v8.066H5.62V28.8c.174.082.354.165.54.236a10.93 10.93 0 0 0 4.224.836 11.004 11.004 0 0 0 6.546-2.146.039.039 0 0 1 .036 0c.716.53 1.496.97 2.322 1.31a10.93 10.93 0 0 0 4.224.836 11.004 11.004 0 0 0 6.546-2.146.039.039 0 0 1 .036 0c.716.53 1.496.97 2.322 1.31a10.93 10.93 0 0 0 4.224.836c1.464 0 2.88-.278 4.224-.835.18-.078.36-.155.54-.238v14.355Zm1.776-23.968c0 3.544-2.94 6.419-6.558 6.419a6.586 6.586 0 0 1-5.712-3.254.963.963 0 0 0-.834-.48h-.036a.97.97 0 0 0-.834.48 6.515 6.515 0 0 1-2.409 2.387 6.617 6.617 0 0 1-3.297.867 6.576 6.576 0 0 1-5.7-3.242.993.993 0 0 0-1.716 0 6.539 6.539 0 0 1-2.413 2.377 6.641 6.641 0 0 1-3.293.865c-3.618 0-6.558-2.875-6.558-6.419V13.78c0-.018.012-.03.03-.03h39.3c.018 0 .03.012.03.03v5.405Z"/></g><defs><clipPath id="a"><path fill="#fff" transform="translate(-.5)" d="M0 0h48v47.415H0z"/></clipPath></defs></svg>
